X: 1461
T: Fred Holland's Schottische
B: australian traditional tunes wiki
M:4/4
L:1/8
R: Schottische
Q: 1/4=100
K:D
V:1 
F>G|"D"A2 f2 "A"e2 (3dfd|"D"A4-A>B c>d|"G"e2 g2 "A7"f2 e2|"D"d>e f<d A2 F>G|"D"A2 f2 "A"e2 d2|
"G"B2-B>G "Em"B2 e>d|"A7"c2-c>B A>d f>e|"D"d6 f>B||"D"A2 f2 A2-AF/2A/2|"G"B2 e2 B2 "Em"e>d|
"A"c2-c>d e2 f>e|"D"d>c d<f A2 F>B|"D"A2 f2 A2-AF/2A/2|"G"B2 e2 "Em"B2 e>d|"A"c2-c>B A>d f>e|"D"d6||
% abcbook-tune_id 6342d53aa3b0fc16e3cdaf51


% abcbook-boost 0
% abcbook-tablature 
% abcbook-transpose 
% abcbook-lastupdated 1665324366156
% abcbook-soundfonts 
% abcbook-repeats 1
% NFF Book 2015

